img/svg/Close.svg

<svg fill="none" height="35" viewBox="0 0 35 35" width="35" xmlns="http://www.w3.org/2000/svg"><path d="m19.4673 17.602 5.9477-5.9544c.5308-.5313.5308-1.3741 0-1.90536-.5307-.53132-1.3725-.53132-1.9032 0l-5.9477 5.95436-5.9478-5.93604c-.5124-.53132-1.3725-.53132-1.88493 0-.53072.53134-.53072 1.37404 0 1.90544l5.92943 5.936-5.92943 5.9544c-.53072.5313-.53072 1.3741 0 1.9054.25621.2565.60393.3847.93333.3847s.6954-.1282.9516-.403l5.9478-5.9361 5.9477 5.9544c.2562.2565.6039.4031.9516.4031s.6954-.1283.9516-.4031c.5308-.5313.5308-1.3741 0-1.9054z" fill="#fff"/><circle cx="17.5" cy="17.5" r="16.5" stroke="#fff" stroke-width="2"/></svg>

<svg width="35" height="35" viewBox="0 0 35 35" fill="none" xmlns="http://www.w3.org/2000/svg">
<path d="M19.4673 17.602L25.415 11.6476C25.9458 11.1163 25.9458 10.2735 25.415 9.74224C24.8843 9.21092 24.0425 9.21092 23.5118 9.74224L17.5641 15.6966L11.6163 9.76056C11.1039 9.22924 10.2438 9.22924 9.73137 9.76056C9.20065 10.2919 9.20065 11.1346 9.73137 11.666L15.6608 17.602L9.73137 23.5564C9.20065 24.0877 9.20065 24.9305 9.73137 25.4618C9.98758 25.7183 10.3353 25.8465 10.6647 25.8465C10.9941 25.8465 11.3601 25.7183 11.6163 25.4435L17.5641 19.5074L23.5118 25.4618C23.768 25.7183 24.1157 25.8649 24.4634 25.8649C24.8111 25.8649 25.1588 25.7366 25.415 25.4618C25.9458 24.9305 25.9458 24.0877 25.415 23.5564L19.4673 17.602Z" fill="white"/>
<circle cx="17.5" cy="17.5" r="16.5" stroke="white" stroke-width="2"/>
</svg>
